svgs/sharp-solid/monitor-waveform.svg

<svg xmlns="http://www.w3.org/2000/svg" viewBox="0 0 576 512"><!--! Font Awesome Pro 6.6.0 by @fontawesome - https://fontawesome.com License - https://fontawesome.com/license (Commercial License) Copyright 2024 Fonticons, Inc. --><path d="M576 32L0 32 0 480l576 0 0-448zM80 96l416 0 16 0 0 16 0 288 0 16-16 0L80 416l-16 0 0-16 0-128 0-160 0-16 16 0zM96 256l96 0 8.6 0 4.8 7.1L223 289.6l51.2-89.5 14.8-26 13.4 26.7L329.9 256l70.1 0 16 0 0 32-16 0-80 0-9.9 0-4.4-8.8-18.6-37.3-49.2 86L225 350.4l-14.4-21.5L183.4 288 96 288l0 96 384 0 0-256L96 128l0 128z"/></svg>

<svg xmlns="http://www.w3.org/2000/svg" viewBox="0 0 576 512"><!--! Font Awesome Pro 6.4.0 by @fontawesome - https://fontawesome.com License - https://fontawesome.com/license (Commercial License) Copyright 2023 Fonticons, Inc. --><path d="M576 32H0V480H576V32zM80 96H496h16v16V400v16H496 80 64V400 272 112 96H80zM96 256h96 8.6l4.8 7.1L223 289.6l51.2-89.5 14.8-26 13.4 26.7L329.9 256H400h16v32H400 320h-9.9l-4.4-8.8-18.6-37.3-49.2 86L225 350.4l-14.4-21.5L183.4 288H96v96H480V128H96V256z"/></svg>
